X:2
T:Willie Coleman's
R:jig
M:6/8
L:1/8
K:G
B2G AGE | GEC G2d | edB dgb | age dBA |
B2G AGE | GEC G2d | edB dBA | BGG G3 :|
|: :|
